X:1
T:Title
%%score { ( 1 3 ) | ( 2 4 ) }
L:1/8
M:6/4
K:F
V:1 treble nm="Grand Piano"
V:3 treble 
V:2 bass 
V:4 bass 
V:1
 z6 z4 CC | F4 G2 A4 [EG][EG] | A4 B2 c4 AB | c4 c2 c2 B2 A2 |[M:7/4] [CGB]4 [CFA]2 [CEG]6 CC | %5
[M:6/4] [CF]4 [CEG]2 [CFA]4 [CEG][CEG] |[M:7/4] [CFA]4 [CFB]2 [CFc]6[K:bass] [F,C][F,C] | %7
[M:6/4] [F,B,D]4[K:treble] [DGB]2 [CFA]4 [B,EG]2 |[M:5/4] [F,A,F]2- [F,A,F]2- [F,A,F]6 | %9
[M:1/4] [Fc][Fc] |[M:6/4] [Ec]4 [EG]2 [EG]4 [FA][GB] | [FA]4 [EG]2 F4 cc | %12
 [Ec]4 [EG]2 [EG]4 [CGc][CGc] |[M:7/4] =B2 z2 z2 z2 z2 z4 |[M:6/4] [CF]4 [CEG]2 [CFA]4 [CFA][CFA] | %15
 [B,FB]4 [Fc]2 [Fd]4 [Fd][Fd] | [CFc]4 [DGB][DGB] [CFA]4 [B,EG]2 | %17
[M:5/4] [F,A,CF]2- [F,A,CF]2- [F,A,CF]6 |] %18
V:2
 z6 z4 [F,A,][F,A,] | [F,A,C]4 [F,B,C]2 [F,CF]4 [C,C][C,C] | [F,CF]4 [G,CF]2 [A,CF]4 [F,CF][G,CF] | %3
 [A,CF]4 [A,CF]2 [A,CF]2[K:bass] [G,CE]2 [F,CF]2 |[M:7/4] E,4 F,2 C,6 C,C, | %5
[M:6/4] A,,4 C,2 F,4 C,C, |[M:7/4] F,4 G,2 A,6 A,,A,, |[M:6/4] B,,4 B,,2 C,4 C,2 | %8
[M:5/4] F,,2- F,,2- F,,6 |[M:1/4] [F,A,][F,A,] |[M:6/4] [C,G,]4 [C,C]2 [C,C]4 [C,C][C,C] | %11
 [C,C]4 [C,B,]2 [F,A,]4 [F,A,F][F,A,F] | [C,G,]4 [C,C]2 [C,C]4 E,E, | %13
[M:7/4] G,4[K:treble] z2[K:bass] z2 z2 z4 |[M:6/4] A,,4 C,2 F,4 F,_E, | %15
 D,4 [C,A,]2 [B,,B,]4 [B,,B,][B,,B,] | A,,4 B,,B,, C,4 C,2 |[M:5/4] F,,2- F,,2- F,,6 |] %18
V:3
 x12 | x12 | x12 | x12 |[M:7/4] x14 |[M:6/4] x12 |[M:7/4] x12[K:bass] x2 |[M:6/4] x4[K:treble] x8 | %8
[M:5/4] x10 |[M:1/4] x2 |[M:6/4] x12 | x12 | x12 |[M:7/4] [DF]4 [DF=B]2 [CEc]6 CC |[M:6/4] x12 | %15
 x12 | x12 |[M:5/4] x10 |] %18
V:4
 x12 | x12 | x12 | x8[K:bass] x4 |[M:7/4] x14 |[M:6/4] x12 |[M:7/4] x14 |[M:6/4] x12 |[M:5/4] x10 | %9
[M:1/4] x2 |[M:6/4] x12 | x12 | x12 |[M:7/4] z2[K:treble] A2 G,2[K:bass] C,6 C,C, |[M:6/4] x12 | %15
 x12 | x12 |[M:5/4] x10 |] %18

